pix_core/i/log.svg

<svg preserveAspectRatio="xMinYMid meet" viewBox="0 0 576 512" xmlns="http://www.w3.org/2000/svg"><path d="m96 80c0-26.5 21.5-48 48-48h288c26.5 0 48 21.5 48 48v304h-384zm313 47c-9.4-9.4-24.6-9.4-33.9 0l-111 111-47-47c-9.4-9.4-24.6-9.4-33.9 0s-9.4 24.6 0 33.9l64 64c9.4 9.4 24.6 9.4 33.9 0l127.9-127.9c9.4-9.4 9.4-24.6 0-33.9zm-409 209c0-26.5 21.5-48 48-48h16v128h448v-128h16c26.5 0 48 21.5 48 48v96c0 26.5-21.5 48-48 48h-480c-26.5 0-48-21.5-48-48z" fill="#fff"/></svg>

<svg xmlns="http://www.w3.org/2000/svg" viewBox="0 0 576 512" preserveAspectRatio="xMinYMid meet"><!--!Font Awesome Free 6.5.2 by @fontawesome - https://fontawesome.com License - https://fontawesome.com/license/free Copyright 2024 Fonticons, Inc.--><path fill="#fff" d="M96 80c0-26.5 21.5-48 48-48H432c26.5 0 48 21.5 48 48V384H96V80zm313 47c-9.4-9.4-24.6-9.4-33.9 0l-111 111-47-47c-9.4-9.4-24.6-9.4-33.9 0s-9.4 24.6 0 33.9l64 64c9.4 9.4 24.6 9.4 33.9 0L409 161c9.4-9.4 9.4-24.6 0-33.9zM0 336c0-26.5 21.5-48 48-48H64V416H512V288h16c26.5 0 48 21.5 48 48v96c0 26.5-21.5 48-48 48H48c-26.5 0-48-21.5-48-48V336z"/></svg>
